X:1
T:Title
%%score { 1 | ( 2 3 ) }
L:1/8
M:4/4
K:G
V:1 treble nm="Grand Piano"
V:2 bass 
V:3 bass 
V:1
 z4 z2[Q:1/4=126] D2 | G2 G2 [FA]2 [FA]2 | B4 c2 d2 | G2 G2 [FA]2 [FB]2 | G6 D2 | %5
 G2 G2 [FA]2 [FA]2 |[M:3/4] B4 c2 |[M:1/4] d2 |[M:4/4] A2 F2 [EG]2 [^CE]2 | D6 D2 | %10
 [FA]2 [FA]2 [GB]2 [GB]2 | [Ac]3 B [FA]2 D2 | [FA]2 [FA]2 [GB]2 [GB]2 |[M:3/4] [Ac]6 |[M:1/4] D2 | %15
[M:4/4] G2 G2 [FA]2 [FA]2 | B4 c2 d2 | G2 G2 [CFA]2 [DFB]2 |[M:3/4] [B,G]6 |[M:1/4] d2 | %20
[M:4/4] d2 B2 c2 d2 |[M:3/4] e4 d2 |[M:1/4] d2 |[M:4/4] d2 B2 [Ac]2 [GB]2 | [FA]6 [Fd]2 | %25
 [Gd]2 [GB]2 [Gc]2 [Gd]2 | [Ge]4 [DGd]2 [EAc]2 | [DGB]2 [B,G]2 [CFA]2 [A,DF]2 |[M:3/4] [B,DG]6 |] %29
V:2
 z4 z2 D,2 | [G,B,D]2 [G,B,D]2 [D,D]2 [D,D]2 | [G,DG]4 [G,A,G]2 [G,B,G]2 | %3
 [D,B,]2 [D,B,]2 [D,C]2 [D,D]2 | [G,B,]6 [G,B,]2 | [G,B,D]2 [G,B,D]2 [D,D]2 [D,D]2 | %6
[M:3/4][K:treble] [G,DG]4 [G,A,G]2 |[M:1/4] [G,B,G]2 | %8
[M:4/4] [A,F]2 [A,D]2[K:bass] [A,,A,]2 [A,,G,]2 | [D,F,]6 D,2 | D,2 D,2 D,2 D,2 | z2 z G D,2 D,2 | %12
 D,2 D,2 D,2 D,2 |[M:3/4] D,6 |[M:1/4] D,2 |[M:4/4] [G,B,D]2 [G,B,D]2 [D,D]2 [D,D]2 | %16
 [G,DG]4 [G,A,G]2 [G,B,G]2 | [D,B,]2 [D,B,]2 D,2 D,2 |[M:3/4] G,,6 |[M:1/4][K:treble] [G,B,G]2 | %20
[M:4/4] [G,B,G]2 [G,G]2 [G,A,G]2 [G,B,G]2 |[M:3/4] [G,CG]4 [G,B,G]2 |[M:1/4] [G,B,G]2 | %23
[M:4/4] [G,B,G]2 [G,DG]2[K:bass] [F,D]2 [G,D]2 | [D,D]6 [D,A,]2 | [G,B,]2 [G,D]2 [E,C]2 [D,B,]2 | %26
 [C,C]4 B,,2 C,2 | D,2 D,2 D,2 D,2 |[M:3/4] G,,6 |] %29
V:3
 x8 | x8 | x8 | x8 | x8 | x8 |[M:3/4][K:treble] x6 |[M:1/4] x2 |[M:4/4] x4[K:bass] x4 | x8 | x8 | %11
 D,4 z4 | x8 |[M:3/4] x6 |[M:1/4] x2 |[M:4/4] x8 | x8 | x8 |[M:3/4] x6 |[M:1/4][K:treble] x2 | %20
[M:4/4] x8 |[M:3/4] x6 |[M:1/4] x2 |[M:4/4] x4[K:bass] x4 | x8 | x8 | x8 | x8 |[M:3/4] x6 |] %29

